synths/sCOMP.svg

<svg width="42" height="42" viewBox="0 0 42 42" fill="none" xmlns="http://www.w3.org/2000/svg">
<g clip-path="url(#clip0_7277_57952)">
<mask id="mask0_7277_57952" style="mask-type:alpha" maskUnits="userSpaceOnUse" x="0" y="0" width="42" height="42">
<circle cx="21" cy="21" r="21" transform="matrix(-1 0 0 1 42 0)" fill="url(#paint0_linear_7277_57952)"/>
</mask>
<g mask="url(#mask0_7277_57952)">
<circle cx="21" cy="21" r="21" transform="matrix(-1 0 0 1 42 0)" fill="#34EDB3"/>
<circle cx="18.2" cy="18.2" r="18.2" transform="matrix(-1 0 0 1 39.2 2.80005)" fill="white"/>
</g>
<circle cx="16.1" cy="16.1" r="16.1" transform="matrix(-1 0 0 1 37.1 4.90002)" fill="#0B0B22"/>
<circle cx="21" cy="21" r="16.1" fill="black"/>
<path fill-rule="evenodd" clip-rule="evenodd" d="M13.4895 26.9971C12.9549 26.67 12.628 26.0878 12.628 25.4625V21.9711C12.628 21.8374 12.6638 21.7086 12.7306 21.594C12.9382 21.236 13.3988 21.1144 13.7568 21.3244L21.637 25.9183C22.0976 26.188 22.3816 26.6797 22.3816 27.2142V30.8321C22.3816 30.9968 22.3362 31.1614 22.2503 31.3022C21.9902 31.727 21.4365 31.8607 21.0117 31.6005L13.4895 26.9971ZM25.2358 20.3673C25.6963 20.637 25.9803 21.1287 25.9803 21.6632V29.004C25.9803 29.2212 25.8634 29.4217 25.6749 29.5267L23.9494 30.498C23.928 30.51 23.9041 30.5195 23.8803 30.5267V26.4505C23.8803 25.9231 23.6034 25.4339 23.15 25.1618L16.2292 21.0213V16.4201C16.2292 16.2865 16.265 16.1576 16.3318 16.0431C16.5394 15.6851 17 15.5634 17.358 15.7734L25.2358 20.3673ZM28.6843 14.9453C29.1472 15.2126 29.4312 15.709 29.4312 16.2435V26.966C29.4312 27.1856 29.3095 27.3884 29.1162 27.4934L27.4814 28.3764V20.9115C27.4814 20.3841 27.2047 19.8972 26.7536 19.6252L19.68 15.382V11.0171C19.68 10.8835 19.7158 10.7546 19.7803 10.6401C19.9879 10.2821 20.4485 10.1604 20.8065 10.368L28.6843 14.9453Z" fill="#00D395"/>
</g>
<defs>
<linearGradient id="paint0_linear_7277_57952" x1="21" y1="0" x2="21" y2="61.4091" gradientUnits="userSpaceOnUse">
<stop stop-color="#08021E"/>
<stop offset="1" stop-color="#1F0777"/>
</linearGradient>
<clipPath id="clip0_7277_57952">
<rect width="42" height="42" fill="white"/>
</clipPath>
</defs>
</svg>

<svg xmlns="http://www.w3.org/2000/svg" width="42" height="42" fill="none"><g clip-path="url(#a)"><mask id="c" width="42" height="42" x="0" y="0" maskUnits="userSpaceOnUse" style="mask-type:alpha"><circle cx="21" cy="21" r="21" fill="url(#b)" transform="matrix(-1 0 0 1 42 0)"/></mask><g mask="url(#c)"><circle cx="21" cy="21" r="21" fill="#34EDB3" transform="matrix(-1 0 0 1 42 0)"/><circle cx="18.2" cy="18.2" r="18.2" fill="#fff" transform="matrix(-1 0 0 1 39.2 2.8)"/></g><circle cx="16.1" cy="16.1" r="16.1" fill="#0B0B22" transform="matrix(-1 0 0 1 37.1 4.9)"/><circle cx="21" cy="21" r="16.1" fill="#000"/><path fill="#00D395" fill-rule="evenodd" d="M13.49 26.997a1.801 1.801 0 0 1-.862-1.535v-3.49a.749.749 0 0 1 1.129-.647l7.88 4.593c.46.27.745.762.745 1.296v3.618a.9.9 0 0 1-1.37.768l-7.523-4.603Zm11.746-6.63c.46.27.744.762.744 1.296v7.341a.598.598 0 0 1-.305.523l-1.726.971a.35.35 0 0 1-.069.029V26.45c0-.528-.277-1.017-.73-1.29l-6.92-4.14v-4.6a.749.749 0 0 1 1.129-.647l7.877 4.593Zm3.448-5.422a1.5 1.5 0 0 1 .747 1.299v10.722c0 .22-.122.422-.315.527l-1.635.883v-7.465c0-.527-.276-1.014-.727-1.286l-7.074-4.243v-4.365a.752.752 0 0 1 1.127-.65l7.877 4.578Z" clip-rule="evenodd"/></g><defs><linearGradient id="b" x1="21" x2="21" y1="0" y2="61.409" gradientUnits="userSpaceOnUse"><stop stop-color="#08021E"/><stop offset="1" stop-color="#1F0777"/></linearGradient><clipPath id="a"><path fill="#fff" d="M0 0h42v42H0z"/></clipPath></defs></svg>
